icons/gradle.svg

<svg width="16" height="16" viewBox="0 0 16 16" fill="none" xmlns="http://www.w3.org/2000/svg">
<path fill-rule="evenodd" clip-rule="evenodd" d="M13.3478 3.6329C12.999 3.23682 12.5283 3.01001 12.0351 3.00032C11.5418 2.99064 11.0645 3.19884 10.7038 3.58099C10.686 3.60007 10.6717 3.62295 10.6617 3.64833C10.6517 3.6737 10.6463 3.70107 10.6456 3.72885C10.6459 3.78473 10.6653 3.83831 10.6997 3.87829L10.9366 4.1567C10.9675 4.19164 11.0085 4.21278 11.052 4.21625C11.0955 4.21971 11.1387 4.20528 11.1736 4.17558C11.3615 4.01456 11.5908 3.92782 11.8263 3.92862C12.0423 3.92755 12.2537 3.99942 12.4337 4.1351C12.6136 4.27078 12.754 4.46414 12.8369 4.6906C12.9198 4.91705 12.9414 5.16637 12.8992 5.40685C12.8569 5.64733 12.7526 5.86812 12.5995 6.04113C11.9718 6.75372 11.2566 6.34036 10.3067 5.79128C8.971 5.01923 7.17108 3.97884 4.49707 5.42295C4.41923 5.46426 4.34977 5.52342 4.29307 5.5967C4.23636 5.66998 4.19365 5.75581 4.16761 5.84876C4.14157 5.94171 4.13278 6.03978 4.14178 6.13678C4.15079 6.23378 4.17739 6.32761 4.21993 6.41236L5.00426 7.95231C5.08611 8.11255 5.22014 8.22988 5.37748 8.27902C5.53481 8.32815 5.70286 8.30516 5.8454 8.21499L5.8648 8.20241L5.84956 8.21499L6.19738 7.9932C6.58502 7.71998 6.95128 7.40949 7.29212 7.06514C7.32704 7.03114 7.37152 7.01245 7.41753 7.01245C7.46353 7.01245 7.50802 7.03114 7.54294 7.06514C7.56396 7.08386 7.58099 7.10774 7.59275 7.13497C7.60451 7.16221 7.61069 7.19211 7.61084 7.22244C7.61133 7.25196 7.60627 7.28126 7.596 7.30839C7.58572 7.33551 7.57047 7.35984 7.55125 7.37974C7.19226 7.74146 6.806 8.06674 6.39693 8.35184H6.38584L6.03802 8.57206C5.891 8.66664 5.72477 8.71598 5.55578 8.7152C5.38123 8.71522 5.20971 8.66339 5.05826 8.56488C4.90682 8.46637 4.78071 8.3246 4.69246 8.15365L3.95109 6.69864C2.52655 7.84062 1.66184 10.0412 2.12607 12.8333C2.13432 12.8799 2.15645 12.9219 2.18874 12.9523C2.22103 12.9826 2.26152 12.9995 2.30344 13H3.14875C3.19268 13 3.2351 12.9818 3.26802 12.9487C3.30094 12.9157 3.3221 12.8702 3.32751 12.8207C3.36517 12.4812 3.51069 12.169 3.73675 11.9427C3.96281 11.7164 4.25386 11.5915 4.55528 11.5915C4.85669 11.5915 5.14774 11.7164 5.3738 11.9427C5.59986 12.169 5.74538 12.4812 5.78304 12.8207C5.78877 12.8703 5.8102 12.9159 5.84335 12.9489C5.8765 12.9819 5.9191 13 5.96319 13H6.78632C6.83026 13 6.87268 12.9818 6.9056 12.9487C6.93852 12.9157 6.95968 12.8702 6.96508 12.8207C7.00397 12.4821 7.15007 12.1711 7.37612 11.9458C7.60216 11.7205 7.89272 11.5962 8.19354 11.5962C8.49437 11.5962 8.78492 11.7205 9.01097 11.9458C9.23702 12.1711 9.38312 12.4821 9.42201 12.8207C9.42741 12.8702 9.44857 12.9157 9.48149 12.9487C9.51441 12.9818 9.55683 13 9.60077 13H10.4142C10.4615 13 10.5069 12.9789 10.5406 12.9412C10.5743 12.9036 10.5936 12.8523 10.5943 12.7987C10.6137 11.4978 10.9228 10.0035 11.8041 9.25473C14.8569 6.66246 14.0545 4.43984 13.3478 3.6329ZM9.79546 7.9979L9 7.55553C8.99969 7.46084 9.02132 7.36764 9.06284 7.28484C9.10437 7.20205 9.16438 7.13243 9.23715 7.08265C9.30993 7.03287 9.39302 7.00459 9.47849 7.00051C9.56395 6.99644 9.64894 7.01671 9.7253 7.05938C9.80167 7.10205 9.86687 7.1657 9.91467 7.24423C9.96247 7.32277 9.99127 7.41357 9.9983 7.50795C10.0053 7.60232 9.99039 7.69712 9.95487 7.78327C9.91936 7.86942 9.86447 7.94404 9.79546 8V7.9979Z" fill="#1D9BB7"/>
</svg>

<svg xmlns="http://www.w3.org/2000/svg" width="16" height="16" fill="none"><path fill="#1D9BB7" fill-rule="evenodd" d="M13.348 3.633A1.8 1.8 0 0 0 12.035 3c-.493-.01-.97.199-1.331.581a.213.213 0 0 0-.042.067.236.236 0 0 0-.016.08c0 .057.02.11.054.15l.237.279c.03.035.072.056.115.06a.167.167 0 0 0 .122-.041.997.997 0 0 1 1.26-.04c.18.135.32.328.403.555.083.226.104.475.062.716-.042.24-.146.461-.3.634-.627.713-1.342.3-2.292-.25C8.97 5.02 7.17 3.98 4.497 5.423a.636.636 0 0 0-.204.174.736.736 0 0 0-.125.252.797.797 0 0 0 .052.563l.784 1.54a.64.64 0 0 0 .373.327c.158.05.326.026.468-.064l.02-.013-.015.013.347-.222a8.139 8.139 0 0 0 1.095-.928.18.18 0 0 1 .126-.053.18.18 0 0 1 .125.053.199.199 0 0 1 .05.07.232.232 0 0 1 .003.173.21.21 0 0 1-.045.072 8.371 8.371 0 0 1-1.154.972h-.011l-.348.22a.882.882 0 0 1-.482.143.91.91 0 0 1-.498-.15 1.076 1.076 0 0 1-.366-.411l-.74-1.455c-1.425 1.142-2.29 3.342-1.826 6.134.008.047.03.089.063.12a.17.17 0 0 0 .114.047h.846a.168.168 0 0 0 .119-.051.214.214 0 0 0 .06-.128c.037-.34.183-.652.409-.878.226-.227.517-.351.818-.351.302 0 .593.124.819.35.226.227.371.54.409.879.006.05.027.095.06.128a.17.17 0 0 0 .12.051h.823a.168.168 0 0 0 .12-.051.214.214 0 0 0 .06-.128c.038-.339.184-.65.41-.875.226-.226.517-.35.818-.35.3 0 .59.124.817.35.226.225.372.536.411.875.005.05.027.095.06.128A.168.168 0 0 0 9.6 13h.813a.17.17 0 0 0 .127-.059.218.218 0 0 0 .053-.142c.02-1.301.329-2.795 1.21-3.544 3.053-2.593 2.25-4.815 1.544-5.622ZM9.795 7.998 9 7.556a.6.6 0 0 1 .063-.271.534.534 0 0 1 .174-.202.46.46 0 0 1 .488-.023.52.52 0 0 1 .19.184.606.606 0 0 1 .04.539.546.546 0 0 1-.16.217v-.002Z" clip-rule="evenodd"/></svg>
